X:916
T:Reel 916
M:4/4
K:Amin
L:1/8
EAAG E^FGE|DG, (3B,A,G, A,DD2|EA,A,B, CB,CE|DB,GB, B,A,A,2:|EAA^G EAAG|EGDB, G,A,B,D|GAAG EGGA|BAGB A2AB|EAA^G E^FGE|DB,GD B,G,G,2|E,A,A,B, CB,CD| (3EFG DB, B,A,A,2|
